X: 8167
T: Coolderry Bridge
R: reel
M: 4/4
K: Dmajor
DA, ~A,2 DEFA|({/A}B)AFA ({/c}d)cdf|fedf eBBA|G<GFG EGFE|
DA, ~A,2 DEFA|({/A}B)AFA ({/c}d)cdB|A ~F3 AFAd|1 dBAF DEFE:|2 dBAF D3||
|:g|fd ~d2 AdFB|eAdf afdf|fedf eBBA|G<GFG Ea^ga|
fd ~d2 Addf|({/f}g)fed dBdB|A ~F3 AeAF|1 EDCE D3:|2 EDCE DGFE||

